X: 342
T: 343. Nun lieget alles unter dir
N: Derived from chor343.krn
C: Johann Sebastian Bach
%%abc-version 2.0
%%abcx-abcm2ps-target-version 5.9.1 (29 Sep 2008)
%%abc-creator hum2abc beta
%%abcx-conversion-date 2019/03/11 17:28:19
%%abc-edited-by Craig Stuart Sapp
%%humdrum-veritas 124755447
%%humdrum-veritas-data 187439658
%%
%%barnumbers 0
L: 1/4
M: 3/4
%%staves [1 2 3 4]
V: 1 clef=treble
V: 2 clef=treble
V: 3 clef=treble-8
V: 4 clef=bass
K: D
[V:1] DDE | 
[V:2] A,DD/C/ | 
[V:3] FF/D/A | 
[V:4] D,/C,/B,,A,, | 
[V:1] F3/^G/A | 
[V:2] D2C/A,/ | 
[V:3] A/F/BA | 
[V:4] D,3/E,/F, | 
[V:1] A2^G | 
[V:2] FE2 | 
[V:3] BB/c/d | 
[V:4] D,/B,,/E,E,, | 
[V:1] !fermata!A2F | 
[V:2] !fermata!E2D/C/ | 
[V:3] !fermata!c2A | 
[V:4] !fermata!A,,2D, | 
[V:1] G2F | 
[V:2] B,/C/D2- | 
[V:3] GA/G/A- | 
[V:4] E,F,3/G,/ | 
[V:1] E2D | 
[V:2] D/C//B,//CD- | 
[V:3] A3/G/F | 
[V:4] A,/G,/F,B,/A,/ | 
[V:1] E3 | 
[V:2] DC/B,/C | 
[V:3] BA3/G/ | 
[V:4] G,/E,/A,A,, | 
[V:1] !fermata!D3 :|]  
[V:2] !fermata!A,3 :|]  
[V:3] !fermata!F3 :|]  
[V:4] !fermata!D,,3 :|]  
[V:1] EEF | 
[V:2] C/B,/C3/^D/ | 
[V:3] A/^G/AA | 
[V:4] A,,A,/G,/F, | 
[V:1] G2G | 
[V:2] EB,E- | 
[V:3] B/A/G2 | 
[V:4] E,3/=D,/=C,/B,,/ | 
[V:1] F3/E/F | 
[V:2] E^D/^C/D | 
[V:3] =cB3/A/ | 
[V:4] A,,/F,,/B,,B,, | 
[V:1] !fermata!E3 | 
[V:2] !fermata!B,3 | 
[V:3] !fermata!G3 | 
[V:4] !fermata!E,,3 | 
[V:1] FFF | 
[V:2] ^DB,D | 
[V:3] BF/G/ A/B/ | 
[V:4] B,,/^C,/^D,B,, | 
[V:1] G3/A/B | 
[V:2] EB,B, | 
[V:3] G/F/Ee/=d/ | 
[V:4] E,3/F,/G,/F,/ | 
[V:1] B2^A | 
[V:2] G/F/ E/D/E | 
[V:3] c3/B/c | 
[V:4] E,/D,/C,F, | 
[V:1] !fermata!B2c | 
[V:2] !fermata!D2F | 
[V:3] !fermata!B2^A | 
[V:4] !fermata!B,,2F, | 
[V:1] dF2 | 
[V:2] F/E/D2 | 
[V:3] B3/F/ B/A/ | 
[V:4] B,3/=A,/G,/F,/ | 
[V:1] G2F | 
[V:2] C/D/ED- | 
[V:3] G/F/ E/A^G/ | 
[V:4] E,/D,/C,D, | 
[V:1] E!fermata!EA | 
[V:2] D/B,/!fermata!CD | 
[V:3] A!fermata!AA | 
[V:4] A,,!fermata!A,,F,, | 
[V:1] B3/A/G | 
[V:2] DG/F/ E/D/ | 
[V:3] G/A/ B/c/ d/A/ | 
[V:4] G,,3/A,,/ B,,/C,/ | 
[V:1] F/E/E3/D/ | 
[V:2] D3/B,/C | 
[V:3] A/B/AG | 
[V:4] D,/G,,/A,,2 | 
[V:1] !fermata!D3 |]  
[V:2] !fermata!A,3 |]  
[V:3] !fermata!F3 |]  
[V:4] !fermata!D,,3 |]  



